assets/icons/utility/reset_password.svg

<?xml version="1.0"?><svg xmlns="http://www.w3.org/2000/svg" width="52" height="52" viewBox="0 0 52 52"><g fill="#fff"><path d="m42 23h-32c-2.2 0-4 1.8-4 4v19c0 2.2 1.8 4 4 4h32c2.2 0 4-1.8 4-4v-19c0-2.2-1.8-4-4-4z m-11 21.5c-1.5 1-3.2 1.5-5 1.5-0.6 0-1.2-0.1-1.8-0.2-2.4-0.5-4.4-1.8-5.7-3.8l3.3-2.2c0.7 1.1 1.9 1.9 3.2 2.1 1.3 0.3 2.6 0 3.8-0.8 2.3-1.5 2.9-4.7 1.4-6.9-0.7-1.1-1.9-1.9-3.2-2.1-1.3-0.3-2.6 0-3.8 0.8-0.3 0.2-0.5 0.4-0.7 0.6l3.5 3.5h-9v-9l2.6 2.6c0.4-0.4 0.9-0.8 1.3-1.1 2-1.3 4.4-1.8 6.8-1.4 2.4 0.5 4.4 1.8 5.7 3.8 2.8 4.2 1.7 9.8-2.4 12.6z m-21-26.4v0.4-0.4z m1 0.9h4c0.6 0 1-0.3 1-0.9v-0.1c0-5.7 4.9-10.4 10.7-10 5.3 0.4 9.3 5 9.3 10.4v-0.3c0 0.6 0.4 0.9 1 0.9h4c0.6 0 1-0.3 1-0.9v-0.1c0-9.1-7.6-16.4-16.8-16-8.5 0.4-15 7.6-15.2 16.1 0.1 0.5 0.5 0.9 1 0.9z"></path></g></svg>

<svg xmlns="http://www.w3.org/2000/svg" x="0px" y="0px"
	 width="52px" height="52px" viewBox="0 0 52 52" enable-background="new 0 0 52 52" xml:space="preserve">
<g>
	<path fill="#FFFFFF" d="M42,23H10c-2.2,0-4,1.8-4,4v19c0,2.2,1.8,4,4,4h32c2.2,0,4-1.8,4-4V27C46,24.8,44.2,23,42,23z M31,44.5
		c-1.5,1-3.2,1.5-5,1.5c-0.6,0-1.2-0.1-1.8-0.2c-2.4-0.5-4.4-1.8-5.7-3.8l3.3-2.2c0.7,1.1,1.9,1.9,3.2,2.1c1.3,0.3,2.6,0,3.8-0.8
		c2.3-1.5,2.9-4.7,1.4-6.9c-0.7-1.1-1.9-1.9-3.2-2.1c-1.3-0.3-2.6,0-3.8,0.8c-0.3,0.2-0.5,0.4-0.7,0.6L26,37h-9v-9l2.6,2.6
		c0.4-0.4,0.9-0.8,1.3-1.1c2-1.3,4.4-1.8,6.8-1.4c2.4,0.5,4.4,1.8,5.7,3.8C36.2,36.1,35.1,41.7,31,44.5z"/>
	<path fill="#FFFFFF" d="M10,18.1v0.4C10,18.4,10,18.3,10,18.1C10,18.1,10,18.1,10,18.1z"/>
	<path fill="#FFFFFF" d="M11,19h4c0.6,0,1-0.3,1-0.9V18c0-5.7,4.9-10.4,10.7-10C32,8.4,36,13,36,18.4v-0.3c0,0.6,0.4,0.9,1,0.9h4
		c0.6,0,1-0.3,1-0.9V18c0-9.1-7.6-16.4-16.8-16c-8.5,0.4-15,7.6-15.2,16.1C10.1,18.6,10.5,19,11,19z"/>
</g>
</svg>
